X: 121
M: C
L: 1/8
K: Em
(G>A) | B2 E2 B3 A | G3 (TF>E)
E2 (DE) | G3 A (B>AB) d | e2 (A>B) A2 (GA) |
(e>ge) d (B>AB) ^d | e2 (E>F) E2 :: (B>c) |
d3 e {e}d2 (cB) | g2 (d>e) d2 (gf) |
e3 d (e>fg) a | b2 (e>f) e2 (dc) | B2 g2
(dB) (AG) | A2 B2 Hg3 f | (e>ge) d
(B>AB) ^d | e2 (E>F) E2 :|
K:

